X:1
T:The Sandshark
M:4/4
L:1/4
K:C
 A| e A G A/2B/2| A F E F/2G/2| A e dc/2-d/2| e G A|c/2-d/2| e/2e/2 c d c/2B/2|\
A/2-B/2 A/2G/2 Ee/2-d/2| c A B A/2G/2| E A A||

